assets/svg/coupon.svg

<?xml version="1.0" encoding="UTF-8"?>
<svg width="1000px" height="1000px" viewBox="0 0 1000 1000" version="1.1" xmlns="http://www.w3.org/2000/svg" xmlns:xlink="http://www.w3.org/1999/xlink">
    <!-- Generator: sketchtool 52.4 (67378) - http://www.bohemiancoding.com/sketch -->
    <title>coupon</title>
    <desc>Created with sketchtool.</desc>
    <g id="新版图标" stroke="none" stroke-width="1" fill="none" fill-rule="evenodd">
        <g id="coupon" fill="#323233">
            <path d="M620.002667,670.518275 C620.002667,680.575482 610.733333,688.71828 599.997333,688.71828 C588.953333,688.71828 580.006667,680.83773 580.006667,670.518275 L580.006667,329.451762 C580.006667,319.394555 589.276,311.251758 599.997333,311.251758 C611.056,311.251758 620.002667,319.132307 620.002667,329.451762 L620.002667,670.518275 Z M420.008,670.518275 C420.008,680.575482 410.724,688.71828 400.002667,688.71828 C388.958667,688.71828 379.997333,680.83773 379.997333,670.518275 L379.997333,329.451762 C379.997333,319.394555 389.281333,311.251758 400.002667,311.251758 C411.046667,311.251758 420.008,319.132307 420.008,329.451762 L420.008,670.518275 Z M780.001333,499.991575 C780.001333,408.676854 848.714667,332.520063 940,315.028128 L940,235.567012 C940,214.849428 922.062667,198 899.813333,198 L100.201333,198 C77.952,198 60,214.849428 60,235.567012 L60,315.028128 C151.285333,332.520063 220.013333,408.676854 220.013333,499.991575 C220.013333,591.293183 151.285333,667.449975 60,684.94191 L60,764.403025 C60,785.12061 77.952,801.970037 100.201333,801.970037 L899.813333,801.970037 C922.062667,801.970037 940,785.12061 940,764.403025 L940,684.94191 C848.714667,667.449975 780.001333,591.293183 780.001333,499.991575 Z" id="Fill-1"></path>
        </g>
    </g>
</svg>

<svg width="1000" height="1000" xmlns="http://www.w3.org/2000/svg"><path d="M620.003 670.518c0 10.057-9.27 18.2-20.006 18.2-11.044 0-19.99-7.88-19.99-18.2V329.452c0-10.057 9.269-18.2 19.99-18.2 11.059 0 20.006 7.88 20.006 18.2v341.066zm-199.995 0c0 10.057-9.284 18.2-20.005 18.2-11.044 0-20.006-7.88-20.006-18.2V329.452c0-10.057 9.284-18.2 20.006-18.2 11.044 0 20.005 7.88 20.005 18.2v341.066zm359.993-170.526c0-91.315 68.714-167.472 159.999-184.964v-79.461C940 214.849 922.063 198 899.813 198H100.201C77.952 198 60 214.85 60 235.567v79.461c91.285 17.492 160.013 93.649 160.013 184.964 0 91.301-68.728 167.458-160.013 184.95v79.461c0 20.718 17.952 37.567 40.201 37.567h799.612c22.25 0 40.187-16.85 40.187-37.567v-79.461c-91.285-17.492-159.999-93.649-159.999-184.95z" fill="#323233" fill-rule="evenodd"/></svg>
